X:1
T:Castalian Springs, 76.76 D
T:Castalian Springs, 76.76 D
T:Marcus Bearden Dewitt, 1880
T:Public Domain Courtesy of the Cyber Hymnal™
C:Marcus Bearden Dewitt, 1880
Z:Public Domain
Z:Courtesy of the Cyber Hymnal™
%%score ( 1 2 ) ( 3 4 )
L:1/8
Q:1/4=108
M:4/4
K:F
V:1 treble 
V:2 treble 
V:3 bass 
V:4 bass 
V:1
 [A,C]2 | [CF]2 [CF]2 ([DF][EG]) ([FA][GB]) | [Ac]4 [FA]2 [Fc]2 | [Fd]2 [Fc]2 [FA]2 F2 | [EG]6 C2 | %5
 [CF]2 [A,F]2 ([DF][EG]) (AB) | [Fc]4 [Fd]2 [Fd]2 | [Fc]2 (FG) [FA]2 [EG]2 | F6 [Fc]2 | %9
 [Af]2 [Ff]2 [Fe]2 [Fd]2 | [Fc]4 [Fd]2 [Ff]2 | c2 [CA]2 [CG]2 [^B,F]2 | [CG]6 (AG) | %13
 [CF]2 [A,F]2 ([DF][EG]) (AB) | [Fc]4 [Fd]2 [Fd]2 | [Fc]2 (FG) [FA]2 [EG]2 | F6 |] %17
V:2
 x2 | x8 | x8 | x6 F2 | x6 C2 | x6 F2 | x8 | x2 F2 x4 | F6 x2 | x8 | x8 | (FC) x6 | x6 C2 | x6 F2 | %14
 x8 | x2 F2 x4 | F6 |] %17
V:3
 F,2 | [F,A,]2 [F,A,]2 [F,B,]2 (CD) | [F,C]4 [F,C]2 [F,A,]2 | [B,,B,]2 [F,A,]2 [F,C]2 [A,,C]2 | %4
 [C,C]6 E,2 | [A,,F,]2 [D,,F,]2 F,2 [D,F,]2 | [A,,F,]4 [B,,F,]2 [B,,B,]2 | %7
 [F,,A,]2 ([A,,C][B,,C]) [C,C]2 [C,B,]2 | [F,,A,]6 [F,A,]2 | [F,C]2 [F,A,]2 [F,C]2 [F,B,]2 | %10
 [F,A,]4 [B,,B,]2 [B,,D]2 | [F,A,]2 F,2 [F,A,]2 [D,A,]2 | [C,E,]6 E,2 | %13
 [A,,F,]2 [F,,F,]2 F,2 [F,A,]2 | [A,,F,]4 [B,,F,]2 [B,,B,]2 | %15
 [F,,A,]2 ([A,,C][B,,D]) [C,C]2 [C,B,]2 | [F,,A,]6 |] %17
V:4
 F,2 | x6 F,2 | x8 | x8 | x6 (C,B,,) | x4 F,2 x2 | x8 | x8 | x8 | x8 | x8 | x2 F,2 x4 | %12
 x6 (C,B,,) | x4 F,2 x2 | x8 | x8 | x6 |] %17

